packages/ui/src/components/Icon/Icon.assets/replay.svg

<svg width="28" height="31" viewBox="0 0 28 31" fill="none" xmlns="http://www.w3.org/2000/svg">
    <path
        d="M14.0002 3.75098C13.6495 3.75098 13.3652 4.03524 13.3652 4.3859C13.3652 4.73655 13.6495 5.02082 14.0002 5.02082C20.6626 5.02082 26.0637 10.4218 26.0637 17.0843C26.0637 23.7468 20.6626 29.1478 14.0002 29.1478C7.33768 29.1478 1.93667 23.7468 1.93667 17.0843C1.93667 15.1108 2.41056 13.2068 3.30538 11.4975C3.46802 11.1869 3.34802 10.8032 3.03736 10.6406C2.7267 10.4779 2.34302 10.5979 2.18038 10.9086C1.19097 12.7985 0.666832 14.9044 0.666832 17.0843C0.666832 24.4481 6.63637 30.4176 14.0002 30.4176C21.364 30.4176 27.3335 24.4481 27.3335 17.0843C27.3335 9.72051 21.364 3.75098 14.0002 3.75098Z"
        fill="white" />
    <path
        d="M10.3798 4.05101C10.0571 4.31765 10.0571 4.81222 10.3798 5.07885L13.4689 7.63142C13.9036 7.99063 14.5602 7.68143 14.5602 7.1175V2.01237C14.5602 1.44844 13.9036 1.13923 13.4689 1.49845L10.3798 4.05101Z"
        fill="white" />
</svg>

<svg width="28" height="31" fill="none" xmlns="http://www.w3.org/2000/svg"><path d="M14 3.751a.635.635 0 100 1.27c6.663 0 12.064 5.4 12.064 12.063S20.663 29.148 14 29.148c-6.662 0-12.063-5.401-12.063-12.064 0-1.973.474-3.877 1.368-5.586a.635.635 0 10-1.125-.59 13.277 13.277 0 00-1.513 6.176c0 7.364 5.97 13.334 13.333 13.334 7.364 0 13.334-5.97 13.334-13.334 0-7.363-5.97-13.333-13.334-13.333z" fill="#fff"/><path d="M10.38 4.051a.667.667 0 000 1.028l3.089 2.552a.667.667 0 001.091-.514V2.012a.667.667 0 00-1.091-.514l-3.09 2.553z" fill="#fff"/></svg>
